themes/supersimple/layouts/partials/icons/arrow_up_pixel.svg

<!DOCTYPE svg PUBLIC "-//W3C//DTD SVG 1.1//EN" "http://www.w3.org/Graphics/SVG/1.1/DTD/svg11.dtd"><svg width="100%" height="100%" viewBox="0 0 29 29" version="1.1" xmlns="http://www.w3.org/2000/svg" xmlns:xlink="http://www.w3.org/1999/xlink" xml:space="preserve" xmlns:serif="http://www.serif.com/" style="fill-rule:evenodd;clip-rule:evenodd;stroke-linejoin:round;stroke-miterlimit:2;"><path d="M16.535,28.346l-4.724,0l0,-18.897l-2.362,-0l-0,2.362l-2.362,0l-0,2.362l-2.363,0l0,2.362l-4.724,0l0,-4.724l2.362,0l0,-2.362l2.362,-0l0,-2.362l2.363,-0l-0,-2.363l2.362,0l-0,-2.362l2.362,0l0,-2.362l4.724,0l0,2.362l2.363,0l-0,2.362l2.362,0l-0,2.363l2.362,-0l0,2.362l2.362,-0l0,2.362l2.362,0l0,4.724l-4.724,0l0,-2.362l-2.362,0l-0,-2.362l-2.362,0l-0,-2.362l-2.363,-0l0,18.897Z" style="fill-rule:nonzero;"/></svg>

<svg viewBox="0 0 29 29" style="fill-rule:evenodd;clip-rule:evenodd;stroke-linejoin:round;stroke-miterlimit:2"><path d="M16.535 28.346h-4.724V9.449H9.449v2.362H7.087v2.362H4.724v2.362H0v-4.724h2.362V9.449h2.362V7.087h2.363V4.724h2.362V2.362h2.362V0h4.724v2.362h2.363v2.362h2.362v2.363h2.362v2.362h2.362v2.362h2.362v4.724h-4.724v-2.362H21.26v-2.362h-2.362V9.449h-2.363v18.897z" style="fill-rule:nonzero"/></svg>
